X:392
T:Gigue
C:Handel
L:1/8
M:6/8
R:Jig
S:Colin Hume's website,  colinhume.com  - chords can also be printed below the stave.
Q:3/8=112
N:For the dance "Birthday Jubilee" by Gary Roodman.  For the dance "One Candle" by Trevor Monson
K:Em
P:A
|: B | "Em"e>fg fge | "B7"^d3 "Em"e2B | "Am"cBc Adc | "Em"B3- B2E |\
"Am"ABc "B7"BcA | "Em"GFG "B7"B2B | "Em"EFG FGE | "B7"F3- F2 :|
P:B
f | "B7"fef "Em"gfg | "C"ede "D"fef | "G"B^cd "A7"Adc | "D"d3- dcB |\
"C"c>Bc "D7"ABc | "Em"BAB G>AB | "C"EFG "D7"DGF | "G"G3- GBA |
"E7"^G>AB EFG | "Am"A3- ABc | "D7"FGA D>EF | "G"G3- GGA |\
"Em"B^cd "A"c^de | "B"^def "C"efg | "Em"fge "B7"Be^d | "Em"e3- e2 |]

